Assets/Images/logo.svg

<svg width="230" height="57" viewBox="0 0 230 57" fill="none" xmlns="http://www.w3.org/2000/svg">
<g id="logo">
<g id="Layer 1">
<path id="Vector" d="M0 0.764648V56.2355H17.536V33.9365H37.1297V56.2355H55.5604V13.9345H73.3424V0.764648H22.289V14.2409H37.1297V19.4738H17.1445V0.764648H0Z" fill="#C7951A"/>
</g>
<g id="HTConstruction inc.">
<path id="Vector_2" d="M227.603 56.0788V53.6816H230V56.0788H227.603Z" fill="#C7951A"/>
<path id="Vector_3" d="M222.978 56.2358C222.028 56.2358 221.213 56.0687 220.534 55.7345C219.855 55.4002 219.338 54.9198 218.983 54.2931C218.628 53.6559 218.45 52.8934 218.45 52.0056C218.45 51.1073 218.628 50.3449 218.983 49.7182C219.338 49.0915 219.855 48.611 220.534 48.2768C221.213 47.9425 222.028 47.7754 222.978 47.7754C223.459 47.7754 223.908 47.8224 224.326 47.9164C224.744 48.0104 225.151 48.1619 225.548 48.3708L225.203 50.0158C224.838 49.8174 224.482 49.6764 224.138 49.5928C223.804 49.4988 223.469 49.4518 223.135 49.4518C222.341 49.4518 221.725 49.6712 221.286 50.1098C220.858 50.5485 220.644 51.1805 220.644 52.0056C220.644 52.8203 220.858 53.4523 221.286 53.9014C221.725 54.3401 222.341 54.5594 223.135 54.5594C223.469 54.5594 223.804 54.5176 224.138 54.4341C224.482 54.3401 224.838 54.1938 225.203 53.9954L225.548 55.6405C225.151 55.8494 224.744 56.0008 224.326 56.0948C223.908 56.1888 223.459 56.2358 222.978 56.2358Z" fill="#C7951A"/>
<path id="Vector_4" d="M209.344 56.0792V47.9321H211.396L211.412 48.8878H211.443C211.778 48.5118 212.164 48.235 212.603 48.0574C213.052 47.8694 213.569 47.7754 214.154 47.7754C215.136 47.7754 215.856 48.0417 216.316 48.5744C216.786 49.0967 217.021 49.9271 217.021 51.0656V56.0792H214.875V51.4886C214.875 50.8097 214.76 50.3187 214.53 50.0158C214.3 49.7025 213.935 49.5458 213.433 49.5458C213.057 49.5458 212.723 49.6242 212.43 49.7808C212.138 49.9271 211.908 50.1307 211.741 50.3919C211.584 50.6425 211.506 50.9402 211.506 51.2849V56.0792H209.344Z" fill="#C7951A"/>
<path id="Vector_5" d="M204.653 56.0789V44.6416H206.94V56.0789H204.653Z" fill="#C7951A"/>
<path id="Vector_6" d="M186.195 56.0792V47.9321H188.247L188.263 48.8878H188.294C188.628 48.5118 189.015 48.235 189.453 48.0574C189.903 47.8694 190.42 47.7754 191.004 47.7754C191.986 47.7754 192.707 48.0417 193.167 48.5744C193.637 49.0967 193.872 49.9271 193.872 51.0656V56.0792H191.725V51.4886C191.725 50.8097 191.61 50.3187 191.381 50.0158C191.151 49.7025 190.785 49.5458 190.284 49.5458C189.908 49.5458 189.574 49.6242 189.281 49.7808C188.989 49.9271 188.759 50.1307 188.592 50.3919C188.435 50.6425 188.357 50.9402 188.357 51.2849V56.0792H186.195Z" fill="#C7951A"/>
<path id="Vector_7" d="M180.405 56.2358C179.068 56.2358 178.034 55.8703 177.302 55.1391C176.582 54.408 176.221 53.3635 176.221 52.0056C176.221 50.6478 176.582 49.6033 177.302 48.8721C178.034 48.141 179.068 47.7754 180.405 47.7754C181.742 47.7754 182.77 48.141 183.491 48.8721C184.212 49.6033 184.572 50.6478 184.572 52.0056C184.572 53.3635 184.212 54.408 183.491 55.1391C182.77 55.8703 181.742 56.2358 180.405 56.2358ZM180.405 54.5594C181.073 54.5594 181.574 54.3453 181.909 53.9171C182.253 53.4888 182.426 52.8517 182.426 52.0056C182.426 51.1596 182.253 50.5224 181.909 50.0942C181.574 49.6659 181.073 49.4518 180.405 49.4518C179.747 49.4518 179.24 49.6659 178.885 50.0942C178.54 50.5224 178.368 51.1596 178.368 52.0056C178.368 52.8517 178.54 53.4888 178.885 53.9171C179.24 54.3453 179.747 54.5594 180.405 54.5594Z" fill="#C7951A"/>
<path id="Vector_8" d="M172.274 46.6314V44.6416H174.467V46.6314H172.274ZM172.274 56.0789V48.0414H174.467V56.0789H172.274Z" fill="#C7951A"/>
<path id="Vector_9" d="M168.288 56.2363C167.306 56.2363 166.596 56.0378 166.157 55.6409C165.729 55.244 165.515 54.5912 165.515 53.6825V49.6089H163.745V47.9325H165.515V45.269H167.677V47.9325H170.325V49.6089H167.677V53.1498C167.677 53.6407 167.756 53.9854 167.912 54.1839C168.069 54.3719 168.351 54.4659 168.758 54.4659C168.978 54.4659 169.207 54.445 169.448 54.4032C169.698 54.3614 169.928 54.304 170.137 54.2309L170.309 55.9386C169.954 56.0431 169.615 56.1162 169.291 56.158C168.967 56.2102 168.633 56.2363 168.288 56.2363Z" fill="#C7951A"/>
<path id="Vector_10" d="M160.14 56.2358C159.189 56.2358 158.375 56.0687 157.696 55.7345C157.017 55.4002 156.5 54.9198 156.145 54.2931C155.79 53.6559 155.612 52.8934 155.612 52.0056C155.612 51.1073 155.79 50.3449 156.145 49.7182C156.5 49.0915 157.017 48.611 157.696 48.2768C158.375 47.9425 159.189 47.7754 160.14 47.7754C160.62 47.7754 161.07 47.8224 161.487 47.9164C161.905 48.0104 162.313 48.1619 162.709 48.3708L162.365 50.0158C161.999 49.8174 161.644 49.6764 161.299 49.5928C160.965 49.4988 160.631 49.4518 160.297 49.4518C159.503 49.4518 158.887 49.6712 158.448 50.1098C158.02 50.5485 157.806 51.1805 157.806 52.0056C157.806 52.8203 158.02 53.4523 158.448 53.9014C158.887 54.3401 159.503 54.5594 160.297 54.5594C160.631 54.5594 160.965 54.5176 161.299 54.4341C161.644 54.3401 161.999 54.1938 162.365 53.9954L162.709 55.6405C162.313 55.8494 161.905 56.0008 161.487 56.0948C161.07 56.1888 160.62 56.2358 160.14 56.2358Z" fill="#C7951A"/>
<path id="Vector_11" d="M149.244 56.2359C148.283 56.2359 147.578 55.9696 147.129 55.4369C146.679 54.9042 146.455 54.0738 146.455 52.9457V47.9321H148.601V52.5227C148.601 53.2016 148.706 53.6978 148.915 54.0111C149.134 54.314 149.484 54.4655 149.964 54.4655C150.33 54.4655 150.649 54.3924 150.92 54.2461C151.202 54.0895 151.421 53.8806 151.578 53.6194C151.735 53.3583 151.813 53.0606 151.813 52.7264V47.9321H153.975V56.0792H151.923L151.891 55.1235H151.86C151.536 55.4995 151.16 55.7816 150.732 55.9696C150.304 56.1471 149.808 56.2359 149.244 56.2359Z" fill="#C7951A"/>
<path id="Vector_12" d="M139.59 56.0792V47.9321H141.658L141.674 49.4518H141.721C141.992 49.0862 142.311 48.7833 142.676 48.5431C143.052 48.2924 143.46 48.1044 143.898 47.9791C144.348 47.8433 144.807 47.7754 145.277 47.7754V49.6085C144.63 49.6085 144.039 49.7286 143.507 49.9688C142.974 50.2091 142.551 50.5381 142.238 50.9559C141.924 51.3632 141.768 51.8176 141.768 52.319V56.0792H139.59Z" fill="#C7951A"/>
<path id="Vector_13" d="M135.714 56.2363C134.732 56.2363 134.022 56.0378 133.583 55.6409C133.155 55.244 132.941 54.5912 132.941 53.6825V49.6089H131.17V47.9325H132.941V45.269H135.103V47.9325H137.751V49.6089H135.103V53.1498C135.103 53.6407 135.181 53.9854 135.338 54.1839C135.495 54.3719 135.777 54.4659 136.184 54.4659C136.403 54.4659 136.633 54.445 136.873 54.4032C137.124 54.3614 137.354 54.304 137.563 54.2309L137.735 55.9386C137.38 56.0431 137.041 56.1162 136.717 56.158C136.393 56.2102 136.059 56.2363 135.714 56.2363Z" fill="#C7951A"/>
<path id="Vector_14" d="M126.957 56.2358C126.592 56.2358 126.2 56.2097 125.782 56.1575C125.375 56.1157 124.983 56.0531 124.607 55.9695C124.231 55.8755 123.902 55.771 123.62 55.6561L123.887 54.0111C124.388 54.1886 124.868 54.3244 125.328 54.4184C125.798 54.5124 126.263 54.5594 126.722 54.5594C127.245 54.5594 127.626 54.4915 127.866 54.3557C128.106 54.22 128.226 54.0111 128.226 53.729C128.226 53.5619 128.185 53.4261 128.101 53.3217C128.018 53.2172 127.866 53.1232 127.647 53.0397C127.438 52.9457 127.14 52.8569 126.754 52.7733C126.085 52.6062 125.511 52.413 125.03 52.1936C124.56 51.9638 124.2 51.6818 123.949 51.3476C123.699 51.0133 123.573 50.606 123.573 50.1255C123.573 49.3526 123.866 48.7677 124.451 48.3708C125.036 47.9738 125.887 47.7754 127.004 47.7754C127.516 47.7754 128.044 47.8172 128.587 47.9007C129.14 47.9843 129.657 48.1044 130.138 48.2611L129.872 49.9062C129.412 49.7495 128.968 49.6346 128.54 49.5615C128.112 49.4884 127.694 49.4518 127.286 49.4518C126.764 49.4518 126.378 49.5145 126.127 49.6398C125.876 49.7547 125.751 49.9375 125.751 50.1882C125.751 50.3344 125.793 50.4598 125.876 50.5642C125.96 50.6687 126.106 50.7627 126.315 50.8462C126.524 50.9298 126.816 51.0133 127.192 51.0969C127.683 51.2118 128.127 51.3476 128.524 51.5043C128.921 51.6609 129.261 51.8489 129.543 52.0683C129.825 52.2772 130.039 52.5226 130.185 52.8047C130.342 53.0867 130.42 53.4105 130.42 53.776C130.42 54.2774 130.279 54.7161 129.997 55.0921C129.715 55.4577 129.313 55.7397 128.791 55.9382C128.279 56.1366 127.668 56.2358 126.957 56.2358Z" fill="#C7951A"/>
<path id="Vector_15" d="M114.467 56.0792V47.9321H116.519L116.535 48.8878H116.566C116.9 48.5118 117.287 48.235 117.726 48.0574C118.175 47.8694 118.692 47.7754 119.277 47.7754C120.259 47.7754 120.979 48.0417 121.439 48.5744C121.909 49.0967 122.144 49.9271 122.144 51.0656V56.0792H119.997V51.4886C119.997 50.8097 119.883 50.3187 119.653 50.0158C119.423 49.7025 119.057 49.5458 118.556 49.5458C118.18 49.5458 117.846 49.6242 117.553 49.7808C117.261 49.9271 117.031 50.1307 116.864 50.3919C116.707 50.6425 116.629 50.9402 116.629 51.2849V56.0792H114.467Z" fill="#C7951A"/>
<path id="Vector_16" d="M108.677 56.2358C107.34 56.2358 106.306 55.8703 105.575 55.1391C104.854 54.408 104.494 53.3635 104.494 52.0056C104.494 50.6478 104.854 49.6033 105.575 48.8721C106.306 48.141 107.34 47.7754 108.677 47.7754C110.014 47.7754 111.043 48.141 111.763 48.8721C112.484 49.6033 112.844 50.6478 112.844 52.0056C112.844 53.3635 112.484 54.408 111.763 55.1391C111.043 55.8703 110.014 56.2358 108.677 56.2358ZM108.677 54.5594C109.345 54.5594 109.847 54.3453 110.181 53.9171C110.526 53.4888 110.698 52.8517 110.698 52.0056C110.698 51.1596 110.526 50.5224 110.181 50.0942C109.847 49.6659 109.345 49.4518 108.677 49.4518C108.019 49.4518 107.512 49.6659 107.157 50.0942C106.812 50.5224 106.64 51.1596 106.64 52.0056C106.64 52.8517 106.812 53.4888 107.157 53.9171C107.512 54.3453 108.019 54.5594 108.677 54.5594Z" fill="#C7951A"/>
<path id="Vector_17" d="M99.8317 56.236C98.5783 56.236 97.5025 56.0062 96.6042 55.5466C95.7059 55.0766 95.0166 54.4029 94.5361 53.5255C94.0661 52.6481 93.8311 51.5932 93.8311 50.3607C93.8311 49.1282 94.0661 48.0732 94.5361 47.1958C95.0166 46.3184 95.7059 45.65 96.6042 45.1904C97.5025 44.7204 98.5783 44.4854 99.8317 44.4854C101.263 44.4854 102.532 44.7935 103.639 45.4097L103.138 47.3212C102.062 46.7154 100.991 46.4125 99.9257 46.4125C99.1319 46.4125 98.4477 46.5691 97.8733 46.8825C97.2988 47.1958 96.8601 47.6502 96.5572 48.2456C96.2543 48.8305 96.1028 49.5355 96.1028 50.3607C96.1028 51.1754 96.2543 51.8804 96.5572 52.4758C96.8601 53.0711 97.2988 53.5255 97.8733 53.8389C98.4477 54.1522 99.1319 54.3089 99.9257 54.3089C100.97 54.3089 102.041 54.006 103.138 53.4002L103.639 55.3116C102.532 55.9279 101.263 56.236 99.8317 56.236Z" fill="#C7951A"/>
<path id="Vector_18" d="M87.6855 56.0789V46.5687H84.0193V44.6416H93.6235V46.5687H89.9573V56.0789H87.6855Z" fill="#C7951A"/>
<path id="Vector_19" d="M80.1736 56.0789V44.6416H82.367V56.0789H80.1736ZM73.3425 56.0789V44.6416H75.536V56.0789H73.3425ZM74.4393 51.0966V49.1695H81.2703V51.0966H74.4393Z" fill="#C7951A"/>
</g>
</g>
</svg>

<svg xmlns="http://www.w3.org/2000/svg" width="230" height="57" fill="none"><path fill="#C7951A" d="M0 .765v55.47h17.536V33.938H37.13v22.299h18.43V13.935h17.782V.765H22.29V14.24h14.84v5.233H17.146V.764z"/><g fill="#C7951A"><path d="M227.603 56.079v-2.397H230v2.397zM222.978 56.236q-1.425 0-2.444-.502a3.5 3.5 0 0 1-1.551-1.44q-.533-.956-.533-2.288 0-1.348.533-2.288a3.5 3.5 0 0 1 1.551-1.441q1.019-.502 2.444-.502.721 0 1.348.141t1.222.455l-.345 1.645a4.4 4.4 0 0 0-1.065-.423 3.7 3.7 0 0 0-1.003-.141q-1.19 0-1.849.658-.642.657-.642 1.896 0 1.221.642 1.895.658.659 1.849.658.502 0 1.003-.125.517-.14 1.065-.439l.345 1.646q-.595.313-1.222.454a6 6 0 0 1-1.348.14M209.344 56.08v-8.148h2.052l.016.956h.031a3.1 3.1 0 0 1 1.16-.83q.674-.283 1.551-.283 1.472 0 2.162.8.705.783.705 2.49v5.014h-2.146v-4.59q0-1.02-.345-1.473-.344-.47-1.097-.47-.564 0-1.003.235-.438.22-.689.61-.235.378-.235.894v4.794zM204.653 56.079V44.642h2.287v11.437zM186.195 56.08v-8.148h2.052l.016.956h.031a3.1 3.1 0 0 1 1.159-.83q.675-.283 1.551-.283 1.473 0 2.163.8.705.783.705 2.49v5.014h-2.147v-4.59q0-1.02-.344-1.473-.345-.47-1.097-.47-.564 0-1.003.235-.438.22-.689.61-.235.378-.235.894v4.794zM180.405 56.236q-2.005 0-3.103-1.097-1.08-1.097-1.081-3.133t1.081-3.134q1.098-1.097 3.103-1.097t3.086 1.097 1.081 3.134-1.081 3.133-3.086 1.097m0-1.677q1.002 0 1.504-.642.517-.642.517-1.911t-.517-1.912q-.502-.642-1.504-.642-.987 0-1.52.642-.517.642-.517 1.912 0 1.269.517 1.911.533.642 1.52.642M172.274 46.631v-1.99h2.193v1.99zm0 9.448V48.04h2.193v8.038zM168.288 56.236q-1.473 0-2.131-.595-.642-.595-.642-1.959V49.61h-1.77v-1.677h1.77V45.27h2.162v2.663h2.648v1.677h-2.648v3.54q0 .737.235 1.035.236.282.846.282.33 0 .69-.063.375-.063.689-.172l.172 1.708a6.6 6.6 0 0 1-1.018.219 6 6 0 0 1-1.003.078M160.14 56.236q-1.426 0-2.444-.502a3.5 3.5 0 0 1-1.551-1.44q-.533-.956-.533-2.288 0-1.348.533-2.288a3.5 3.5 0 0 1 1.551-1.441q1.018-.502 2.444-.502.72 0 1.347.141.628.141 1.222.455l-.344 1.645a4.4 4.4 0 0 0-1.066-.423 3.7 3.7 0 0 0-1.002-.141q-1.19 0-1.849.658-.642.657-.642 1.896 0 1.221.642 1.895.658.659 1.849.658.501 0 1.002-.125.517-.14 1.066-.439l.344 1.646q-.594.313-1.222.454a6 6 0 0 1-1.347.14M149.244 56.236q-1.442 0-2.115-.8-.674-.798-.674-2.49v-5.014h2.146v4.59q0 1.02.314 1.49.329.453 1.049.453.55 0 .956-.219a1.73 1.73 0 0 0 .658-.627q.235-.39.235-.893v-4.794h2.162v8.147h-2.052l-.032-.956h-.031q-.486.565-1.128.847-.642.266-1.488.266M139.59 56.08v-8.148h2.068l.016 1.52h.047a3.8 3.8 0 0 1 .955-.909q.565-.376 1.222-.564.674-.204 1.379-.204v1.834q-.971 0-1.77.36-.8.36-1.269.987-.47.611-.47 1.363v3.76zM135.714 56.236q-1.473 0-2.131-.595-.642-.595-.642-1.959V49.61h-1.771v-1.677h1.771V45.27h2.162v2.663h2.648v1.677h-2.648v3.54q0 .737.235 1.035.236.282.846.282.329 0 .689-.063.376-.063.69-.172l.172 1.708a6.6 6.6 0 0 1-1.018.219 6 6 0 0 1-1.003.078M126.957 56.236q-.548 0-1.175-.078a10 10 0 0 1-1.175-.189 7 7 0 0 1-.987-.313l.267-1.645q.751.267 1.441.407.705.141 1.394.141.784 0 1.144-.203a.67.67 0 0 0 .36-.627.63.63 0 0 0-.125-.407q-.125-.157-.454-.282a4.7 4.7 0 0 0-.893-.267 10 10 0 0 1-1.724-.58q-.705-.345-1.081-.845-.376-.502-.376-1.222 0-1.16.878-1.755.877-.596 2.553-.596.768 0 1.583.126a9.7 9.7 0 0 1 1.551.36l-.266 1.645a8.7 8.7 0 0 0-1.332-.344 7.4 7.4 0 0 0-1.254-.11q-.783 0-1.159.188-.376.172-.376.548 0 .22.125.376.126.157.439.282.313.126.877.25.736.174 1.332.408a4.1 4.1 0 0 1 1.019.564q.423.315.642.737.235.422.235.971 0 .752-.423 1.316-.423.549-1.206.846-.768.298-1.834.298M114.467 56.08v-8.148h2.052l.016.956h.031a3.1 3.1 0 0 1 1.16-.83q.673-.283 1.551-.283 1.472 0 2.162.8.705.783.705 2.49v5.014h-2.147v-4.59q0-1.02-.344-1.473-.345-.47-1.097-.47-.564 0-1.003.235-.438.22-.689.61-.235.378-.235.894v4.794zM108.677 56.236q-2.006 0-3.102-1.097-1.081-1.097-1.081-3.133t1.081-3.134q1.096-1.097 3.102-1.097t3.086 1.097q1.081 1.097 1.081 3.134t-1.081 3.133-3.086 1.097m0-1.677q1.003 0 1.504-.642.517-.642.517-1.911t-.517-1.912q-.502-.642-1.504-.642-.987 0-1.52.642-.517.642-.517 1.912 0 1.269.517 1.911.533.642 1.52.642M99.832 56.236q-1.881 0-3.228-.69a4.9 4.9 0 0 1-2.068-2.02q-.705-1.317-.705-3.165 0-1.85.705-3.165a4.8 4.8 0 0 1 2.068-2.006q1.347-.705 3.228-.705 2.146 0 3.807.925l-.501 1.911q-1.614-.908-3.212-.908-1.19 0-2.053.47a3.13 3.13 0 0 0-1.316 1.363q-.454.877-.454 2.115 0 1.222.454 2.115.455.893 1.316 1.363.862.47 2.053.47 1.566 0 3.212-.909l.501 1.912q-1.66.924-3.807.924M87.686 56.079v-9.51h-3.667v-1.927h9.605v1.927h-3.667v9.51zM80.174 56.079V44.642h2.193v11.437zm-6.832 0V44.642h2.194v11.437zm1.097-4.982v-1.928h6.831v1.928z"/></g></svg>
